X:1
T:St. Barbara, LM
T:Peter Christian Lutkin (1858-1931)
T:St. Barbara, LM
T:Public Domain
C:Peter Christian Lutkin (1858-1931)
Z:Public Domain
%%score ( 1 2 ) ( 3 4 )
L:1/8
M:3/4
K:Eb
V:1 treble 
V:2 treble 
V:3 bass 
V:4 bass 
V:1
 [EG]2 [EG]2 [EG]2 | [FB]4 [DF]2 | [EG]4 [EG]2 | B4 A2 | [EG]2 [EA]2 [GB]2 | [GB]2 [FA]2 [=Ec]2 | %6
 c2 A2 [CF]2 | E4 D2 | [DG]2 D2 [DF]2 | [DF]4 [CE]2 | B2 F2 [FA]2 | A4 G2 | G2 [Gc]2 [GB]2 | %13
 [GB]2 [FA]2 [CF]2 | [B,E]4 [B,D]2 | [B,E]6 |] %16
V:2
 x6 | x6 | x6 | F6 | x6 | x6 | F4 x2 | B,6 | x2 D2 x2 | x6 | F4 x2 | E6 | x6 | x6 | x6 | x6 |] %16
V:3
 [E,B,]2 [D,B,]2 [C,B,]2 | [D,B,]4 [B,,B,]2 | E,2 D,2 [C,B,]2 | F,4 B,2 | [E,B,]2 [E,C]2 [=E,_D]2 | %5
 [F,C]4 [G,B,]2 | A,2 C2 [A,,A,]2 | G,4 F,2 | [=B,,D,]2 [B,,G,]2 [B,,A,]2 | [C,A,]4 [C,G,]2 | %10
 F,2 B,2 [D,=B,]2 | C4 B,2 | [=E,C]2 [E,G,]2 [E,_D]2 | _D2 C2 [A,,A,]2 | [B,,G,]4 [B,,F,]2 | %15
 [E,G,]6 |] %16
V:4
 x6 | x6 | B,4 x2 | D,6 | x6 | x6 | A,4 x2 | B,,6 | x6 | x6 | D,4 x2 | E,6 | x6 | F,4 x2 | x6 | %15
 x6 |] %16

